X: 1993
T: As I Went Out Upon The Ice
R: polka
M: 2/4
K: Adorian
|:g/f/|eA BA|eA Ag/f/|eA BA|G2 Gg/f/|
eA BA|eA BA|G>B dG|BA A:|
|:B/d/|ea ab|ag ed|ea ab|
[1 g2 gd|ea ab|ag ef|g/f/e dB|A2 A:|
[2 g2 g2|a2 a>b|ag e>f|g/f/e dB|A2 A||

